icons/desktop/16/email-16.svg

<svg width="16" height="16" viewBox="0 0 16 16" fill="none" xmlns="http://www.w3.org/2000/svg">
<path fill-rule="evenodd" clip-rule="evenodd" d="M8 2C9.4553 2 11.0559 2.05884 12.7773 2.21289L13.5225 2.28516L13.7812 2.32422C15.0525 2.57884 16 3.69884 16 5.02539V10.9746C16 12.3741 14.9513 13.5653 13.5459 13.7119C11.8584 13.8874 10.0011 14 8 14C6.33683 14 4.48373 13.9228 2.47754 13.7148C1.07827 13.5696 0 12.3897 0 10.9746V5.02539C0 3.62588 1.04865 2.43465 2.4541 2.28809C4.14156 2.11265 5.99888 2 8 2ZM1.5 5.02539V10.9746C1.5 11.6135 1.99009 12.1559 2.63281 12.2227C4.58244 12.4247 6.3833 12.5 8 12.5C9.94487 12.5 11.7501 12.3903 13.3906 12.2197C14.0189 12.154 14.5 11.6189 14.5 10.9746V5.1709C14.3784 5.29482 14.2575 5.41955 14.1348 5.54199C12.7888 6.8879 11.3531 8.17803 9.86523 9.37695C9.34927 9.79193 8.73213 9.99997 8.11816 10C7.51117 10 6.90539 9.79661 6.40039 9.39062C4.90843 8.18966 3.46525 6.89495 2.11328 5.54199C1.90871 5.33743 1.70633 5.13009 1.50488 4.92188C1.50212 4.95604 1.5 4.99053 1.5 5.02539ZM8 3.5C6.05512 3.5 4.24992 3.60971 2.60938 3.78027C2.57276 3.7841 2.53653 3.78895 2.50098 3.7959C2.72325 4.02671 2.94679 4.25636 3.17285 4.48242C4.48673 5.79629 5.88997 7.05476 7.34082 8.22266C7.80278 8.59363 8.45286 8.5859 8.92285 8.20898C10.3688 7.04302 11.7663 5.7894 13.0732 4.48145C13.28 4.27473 13.4841 4.06495 13.6875 3.85449C13.5865 3.81591 13.4793 3.78898 13.3672 3.77734C11.4176 3.5753 9.6167 3.5 8 3.5Z" fill="black"/>
</svg>

<!-- This Source Code Form is subject to the terms of the Mozilla Public
   - License, v. 2.0. If a copy of the MPL was not distributed with this
   - file, You can obtain one at http://mozilla.org/MPL/2.0/. -->
<svg xmlns="http://www.w3.org/2000/svg" width="16" height="16" fill="context-fill" fill-opacity="context-fill-opacity" viewBox="0 0 16 16">
    <path fill-rule="evenodd" d="M8 2c1.455 0 3.056.059 4.777.213l.746.072.258.04A2.76 2.76 0 0 1 16 5.024v5.95c0 1.4-1.049 2.59-2.454 2.737a53.6 53.6 0 0 1-11.068.003A2.76 2.76 0 0 1 0 10.975v-5.95c0-1.4 1.049-2.59 2.454-2.737A54 54 0 0 1 8 2M1.5 5.025v5.95c0 .639.49 1.18 1.133 1.248a52 52 0 0 0 10.758-.003 1.246 1.246 0 0 0 1.109-1.245V5.17q-.182.187-.365.371a54 54 0 0 1-4.27 3.835A2.8 2.8 0 0 1 8.118 10 2.74 2.74 0 0 1 6.4 9.39a54 54 0 0 1-4.895-4.468 1 1 0 0 0-.005.103M8 3.5c-1.945 0-3.75.11-5.39.28a1 1 0 0 0-.109.016 52 52 0 0 0 4.84 4.427 1.256 1.256 0 0 0 1.582-.014 52 52 0 0 0 4.765-4.355 1.3 1.3 0 0 0-.32-.077A52 52 0 0 0 8 3.5" clip-rule="evenodd" />
</svg>
